src/images/mail-alt-3-svgrepo-com.svg

<?xml version="1.0" encoding="utf-8"?><!-- Uploaded to: SVG Repo, www.svgrepo.com, Generator: SVG Repo Mixer Tools -->
<svg width="800px" height="800px" viewBox="0 0 24 24" fill="none" xmlns="http://www.w3.org/2000/svg">
<path d="M21 8L17.4392 9.97822C15.454 11.0811 14.4614 11.6326 13.4102 11.8488C12.4798 12.0401 11.5202 12.0401 10.5898 11.8488C9.53864 11.6326 8.54603 11.0811 6.5608 9.97822L3 8M6.2 19H17.8C18.9201 19 19.4802 19 19.908 18.782C20.2843 18.5903 20.5903 18.2843 20.782 17.908C21 17.4802 21 16.9201 21 15.8V8.2C21 7.0799 21 6.51984 20.782 6.09202C20.5903 5.71569 20.2843 5.40973 19.908 5.21799C19.4802 5 18.9201 5 17.8 5H6.2C5.0799 5 4.51984 5 4.09202 5.21799C3.71569 5.40973 3.40973 5.71569 3.21799 6.09202C3 6.51984 3 7.07989 3 8.2V15.8C3 16.9201 3 17.4802 3.21799 17.908C3.40973 18.2843 3.71569 18.5903 4.09202 18.782C4.51984 19 5.07989 19 6.2 19Z" stroke="#000000" stroke-width="2" stroke-linecap="round" stroke-linejoin="round"/>
</svg>

<svg xmlns="http://www.w3.org/2000/svg" width="800" height="800" fill="none" viewBox="0 0 24 24"><path stroke="#000" stroke-linecap="round" stroke-linejoin="round" stroke-width="2" d="m21 8-3.56 1.978c-1.986 1.103-2.979 1.655-4.03 1.87-.93.192-1.89.192-2.82 0-1.051-.215-2.044-.767-4.03-1.87L3 8m3.2 11h11.6c1.12 0 1.68 0 2.108-.218a2 2 0 0 0 .874-.874C21 17.48 21 16.92 21 15.8V8.2c0-1.12 0-1.68-.218-2.108a2 2 0 0 0-.874-.874C19.48 5 18.92 5 17.8 5H6.2c-1.12 0-1.68 0-2.108.218a2 2 0 0 0-.874.874C3 6.52 3 7.08 3 8.2v7.6c0 1.12 0 1.68.218 2.108a2 2 0 0 0 .874.874C4.52 19 5.08 19 6.2 19Z"/></svg>
